X:148
%%etbk:tnset id:52,pos:2,rep:3x,ant:
%%etbk:tnset id:257,pos:4,rep:2x-Stop,ant:
%%etbk:tnset id:507,pos:2,rep:3x,ant:
%%etbk:wsite http://www.thesession.org/tunes/display/336
%%etbk:pldat 2016-06-23T18:15,2016-06-21T15:57,2016-05-05T11:37,2016-05-04T14:46,2016-05-03T16:37,2016-05-02T18:21,2016-04-25T18:13,2016-04-09T14:54,2016-04-08T18:27,2016-04-07T15:52,2016-04-05T15:51,2016-04-04T18:50,2016-04-03T14:10,2016-04-02T14:01,2016-03-31T15:42,2016-03-30T16:20,2016-03-28T14:57,2016-03-11T15:31,2016-03-09T15:44,2016-03-08T16:16,2016-02-29T19:36,2016-02-13T16:09,2015-11-02T18:16,2015-10-29T18:10,2015-10-27T15:50,2015-10-24T13:10,2015-10-19T18:12,2015-10-07T15:53,2015-10-01T18:37,2015-06-22T18:54,2015-05-26T18:15,2015-04-23T18:28,2015-03-13T18:42,2015-03-11T16:53,2015-03-06T16:42,2015-02-22T16:33,2015-02-18T17:59,2015-02-09T19:37,2015-02-03T15:27,2015-02-02T19:34,2014-11-19T16:35,2014-11-06T18:50,2014-11-05T18:44,2014-11-04T15:48,2014-11-02T14:17,2014-10-28T15:59,2014-10-25T15:02,2014-10-19T15:03,2014-10-10T16:05,2014-08-21T18:27,2014-08-05T17:48,2014-06-23T18:06,2014-06-22T16:07,2014-06-05T18:01,2014-06-02T19:19,2014-04-09T16:37,2014-03-06T18:07,2014-03-04T19:14,2014-03-03T18:48,2014-03-02T16:30,2014-03-01T15:42,2014-02-26T16:27,2014-02-24T18:14,2014-02-23T11:18,2014-02-20T18:34,2014-02-19T16:12,2013-10-30T17:37,2013-10-29T17:09,2013-10-27T14:06,2013-10-17T18:57,2013-10-14T18:19,2013-10-11T18:31,2013-10-07T17:49
T: Piper's Despair, The
Z: Piano Box Version by Martin Fleischmann
H: Created 2013-02-19 /  Last Modified 2014-02-19
M: 4/4
L: 1/8
R: reel
K: Edor
|:"em"!1!EFGA !5!BA!2!F!4!A | !2!B!4!d!1!A!2!B !4!d!2!B!1!A!2!F | "D"!1!D2!2!D!1!D !4!A!1!D!2!F!4!A| !2!BBAB !4!dB!1!A!2!F |
"em"!1!EFGA !5!BA!2!F!4!A | !2!BdAB !4!dB!1!A!2!F | "em"!1!D2!2!F!3!A !5!d!3!f!5!a!3!f | !4!gfe!1!d "em"!2!B!5!ee2:|
|:"em"!1!e2 !3!(3gfe !5!be!3!gf | !1!efga !5!b!2!f!4!a!2!f | "D"!1!d!3!f!2!f!3!f !5!a!3!f!2!f!3!f | !1!d!3!f!2!f!3!f !5!afdf | 
"em"!1!e2 !3!(3gfe !5!begf | !1!efga !5!b!2!f!4!a!2!f | "D"!1!d!2!c!1!d!3!f !5!a3f | !4!gfe!1!d "em"!2!B!5!ee2:||


